source/img/icon-instagram.svg

<svg width="25" height="25" viewBox="0 0 25 25" fill="none" xmlns="http://www.w3.org/2000/svg">
<path fill-rule="evenodd" clip-rule="evenodd" d="M0 12.5C0 5.59646 5.59646 0 12.5 0C19.4035 0 25 5.59646 25 12.5C25 19.4035 19.4035 25 12.5 25C5.59646 25 0 19.4035 0 12.5ZM12.5006 5.83333C10.6901 5.83333 10.4628 5.84125 9.75172 5.87359C9.04198 5.90609 8.55755 6.01849 8.13365 6.18333C7.69516 6.35359 7.32323 6.58141 6.95266 6.95208C6.58182 7.32266 6.35401 7.69458 6.18318 8.13292C6.01792 8.55698 5.90542 9.04156 5.87349 9.75099C5.84167 10.4621 5.83333 10.6895 5.83333 12.5001C5.83333 14.3106 5.84141 14.5372 5.87359 15.2483C5.90625 15.958 6.01859 16.4424 6.18333 16.8664C6.35375 17.3048 6.58151 17.6768 6.95224 18.0473C7.32266 18.4182 7.69458 18.6465 8.13281 18.8168C8.55698 18.9817 9.04156 19.094 9.75115 19.1265C10.4623 19.1589 10.6894 19.1668 12.4998 19.1668C14.3105 19.1668 14.537 19.1589 15.2482 19.1265C15.9579 19.094 16.4429 18.9817 16.8671 18.8168C17.3054 18.6465 17.6768 18.4182 18.0472 18.0473C18.418 17.6768 18.6458 17.3048 18.8167 16.8665C18.9806 16.4424 19.0931 15.9579 19.1264 15.2484C19.1583 14.5373 19.1667 14.3106 19.1667 12.5001C19.1667 10.6895 19.1583 10.4623 19.1264 9.75115C19.0931 9.04141 18.9806 8.55698 18.8167 8.13307C18.6458 7.69458 18.418 7.32266 18.0472 6.95208C17.6764 6.58125 17.3055 6.35349 16.8667 6.18333C16.4416 6.01849 15.9569 5.90609 15.2472 5.87359C14.536 5.84125 14.3097 5.83333 12.4985 5.83333H12.5006Z"/>
<path fill-rule="evenodd" clip-rule="evenodd" d="M11.9026 7.03475C12.0801 7.03449 12.2781 7.03475 12.5006 7.03475C14.2806 7.03475 14.4916 7.04115 15.1945 7.07308C15.8445 7.10282 16.1973 7.21141 16.4323 7.30266C16.7434 7.4235 16.9653 7.56793 17.1984 7.80126C17.4318 8.03459 17.5762 8.25683 17.6973 8.56798C17.7886 8.80266 17.8973 9.15548 17.9269 9.80548C17.9589 10.5082 17.9658 10.7194 17.9658 12.4986C17.9658 14.2777 17.9589 14.4889 17.9269 15.1916C17.8972 15.8416 17.7886 16.1944 17.6973 16.4291C17.5765 16.7403 17.4318 16.9618 17.1984 17.195C16.9651 17.4283 16.7436 17.5728 16.4323 17.6936C16.1976 17.7853 15.8445 17.8936 15.1945 17.9233C14.4918 17.9553 14.2806 17.9622 12.5006 17.9622C10.7205 17.9622 10.5095 17.9553 9.80672 17.9233C9.15672 17.8933 8.80391 17.7847 8.5688 17.6934C8.25766 17.5726 8.03542 17.4282 7.80208 17.1949C7.56875 16.9615 7.42432 16.7399 7.30323 16.4286C7.21198 16.1939 7.10323 15.8411 7.07364 15.1911C7.04167 14.4883 7.03531 14.2772 7.03531 12.4969C7.03531 10.7166 7.04167 10.5066 7.07364 9.80381C7.10333 9.15381 7.21198 8.801 7.30323 8.566C7.42406 8.2549 7.56875 8.03266 7.80208 7.79933C8.03542 7.566 8.25766 7.42157 8.5688 7.30042C8.8038 7.20876 9.15672 7.10042 9.80672 7.07058C10.4217 7.04282 10.6601 7.03449 11.9026 7.03308V7.03475ZM16.0593 8.14168C15.6176 8.14168 15.2593 8.49964 15.2593 8.94141C15.2593 9.38308 15.6176 9.74142 16.0593 9.74142C16.5009 9.74142 16.8593 9.38308 16.8593 8.94141C16.8593 8.49975 16.5009 8.14168 16.0593 8.14168ZM12.5006 9.07642C10.6099 9.07642 9.07698 10.6094 9.07698 12.5001C9.07698 14.3908 10.6099 15.923 12.5006 15.923C14.3914 15.923 15.9237 14.3908 15.9237 12.5001C15.9237 10.6094 14.3914 9.07642 12.5006 9.07642Z"/>
<path fill-rule="evenodd" clip-rule="evenodd" d="M12.5006 10.2778C13.7279 10.2778 14.7229 11.2727 14.7229 12.5C14.7229 13.7273 13.7279 14.7223 12.5006 14.7223C11.2732 14.7223 10.2784 13.7273 10.2784 12.5C10.2784 11.2727 11.2732 10.2778 12.5006 10.2778Z"/>
</svg>

<svg width="25" height="25" viewBox="0 0 25 25" fill="none" xmlns="http://www.w3.org/2000/svg"><path clip-rule="evenodd" d="M0 12.5C0 5.596 5.596 0 12.5 0S25 5.596 25 12.5 19.404 25 12.5 25 0 19.404 0 12.5zm12.5-6.667c-1.81 0-2.037.008-2.748.04-.71.033-1.194.145-1.618.31-.439.17-.81.398-1.181.77a3.27 3.27 0 00-.77 1.18c-.165.424-.278.909-.31 1.618-.031.711-.04.939-.04 2.75 0 1.81.008 2.036.04 2.747.033.71.146 1.194.31 1.618.17.439.399.81.77 1.181.37.371.742.6 1.18.77.424.165.909.277 1.618.31.711.032.938.04 2.749.04 1.81 0 2.037-.008 2.748-.04.71-.033 1.195-.145 1.62-.31.437-.17.809-.399 1.18-.77.37-.37.598-.742.769-1.18.164-.425.276-.91.31-1.619.031-.71.04-.937.04-2.748 0-1.81-.009-2.038-.04-2.749-.034-.71-.146-1.194-.31-1.618a3.274 3.274 0 00-.77-1.18 3.259 3.259 0 00-1.18-.77c-.425-.165-.91-.277-1.62-.31-.711-.032-.937-.04-2.748-.04h.002z"/><path clip-rule="evenodd" d="M11.903 7.035h.598c1.78 0 1.99.006 2.694.038.65.03 1.002.138 1.237.23.311.12.533.265.766.498.234.234.378.456.5.767.09.235.2.587.229 1.237.032.703.039.914.039 2.694 0 1.779-.007 1.99-.04 2.693-.029.65-.137 1.002-.229 1.237a2.06 2.06 0 01-.499.766 2.06 2.06 0 01-.766.499c-.234.091-.587.2-1.237.23-.703.031-.914.038-2.694.038-1.78 0-1.992-.007-2.694-.039-.65-.03-1.003-.138-1.238-.23a2.065 2.065 0 01-.767-.498 2.066 2.066 0 01-.499-.766c-.091-.235-.2-.588-.23-1.238-.031-.703-.038-.914-.038-2.694 0-1.78.007-1.99.039-2.693.03-.65.138-1.003.23-1.238.12-.311.265-.533.498-.767A2.07 2.07 0 018.57 7.3c.235-.091.588-.2 1.238-.23.615-.027.853-.036 2.096-.037v.002zm4.156 1.107a.8.8 0 100 1.6.8.8 0 000-1.6zm-3.558.934a3.424 3.424 0 100 6.848 3.424 3.424 0 000-6.848z"/><path clip-rule="evenodd" d="M12.5 10.278a2.222 2.222 0 110 4.444 2.222 2.222 0 010-4.444z"/></svg>
